X: 22494
T: Lady Dillon
R: reel
M: 4/4
K: Fmajor
F2 DE F2 F2|AGFE FG F2|GAGC G2 G2|BAFA B4|
Ac A/B/c Bd B/c/d|Ac A/B/c BAGF|{F}E2 DC {E}D2 CB,|C4 C4||
FGAB c2 c2|B/c/d cB B4|Ac A/B/c BAGF|{A}GFEF G2 G2|
F2 f2 efge|fedc B3 A/B/|cBAG FECE|F4 F4||
c'2 ag f2 f2|efde c3 f|efde cfef|g2 a2 g4|
a2 ag/a/ bgaf|e2 ed/e/ fdec|b2 ba/b/ c'abg|f2 fe/f/ gefd|
c'2 c'b/c'/ d'bc'a|gfga b3 a/f/|gefd c2 fe|f2 FG F4||
[M:6/8]||cdc cAF|{e}f3 e2 d|cdc cAF|B3 A2 G|
A/B/cc cdc|{a}b3 a2 g|gag gec|f3 f3|
abc' c'd'c'|efg gab|agf efg|c3 c3|
AFc AFc|dBf dBb|{b}agf e/f/ge|f3 f3||

